icon/pk/weixin-favorites.svg

<svg width="48" height="48" fill="none" xmlns="http://www.w3.org/2000/svg"><path d="m6 14 18-8 18 8M6 14l18 8M6 14v20l18 8m18-28-18 8m18-8v20l-18 8m0-20v20" stroke="#000" stroke-width="4" stroke-linecap="round" stroke-linejoin="round"/></svg>

<svg viewBox="0 0 48 48" fill="none" xmlns="http://www.w3.org/2000/svg" height="1em" width="1em">
  <path d="M6 14L24 6L42 14M6 14L24 22M6 14V34L24 42M42 14L24 22M42 14V34L24 42M24 22V42" stroke="black" stroke-width="4" stroke-linecap="round" stroke-linejoin="round"/>
</svg>
